X: 14758
T: Gan Ainm
R: jig
M: 6/8
K: Dmajor
|:A|dAF DFA|dcB AGF|BEE BEE|BAF DFA|
dAF AFA|dcB AGF|Bcd eag|fdd d2:|
|:A|def g2e|fdB AFA||BEE BEE|BAF DFA|
def g2e|fdB AFA|Bcd eag|fdd d2:|

